X:30
T:French Strollers. ThoH.030
Q:1/2=90
M:3/2
L:1/8
B:Thompson's Compleat Collection of 120 Favourite Hornpipes.
Z:Village Music Project, Simon Wilson 2016
O:England.
K:A
|:a2(ed) cBAGA2A,2|CEAc dfBA GBE2|d2cB cedc BAGB|A2GF EDCB,A,4:|
|:BcAB GEGBe4|d2fe dcBAG2B2|ceaf dBce ^dfdg|fgag fef^de4-|
e2(=dc) dfaf ecBA|B3c dBcA GBE2|d2cB cedc BAGB|A2(GF) EDCB,A,4:|

